icons/mirror-16.svg

<svg width="16" height="16" viewBox="0 0 16 16" xmlns="http://www.w3.org/2000/svg">
  <path fill-rule="evenodd" clip-rule="evenodd" d="M8.75 1.75C8.75 1.33579 8.41421 1 8 1C7.58579 1 7.25 1.33579 7.25 1.75V2.25C7.25 2.66421 7.58579 3 8 3C8.41421 3 8.75 2.66421 8.75 2.25V1.75ZM8 4C8.41421 4 8.75 4.33579 8.75 4.75V5.25C8.75 5.66421 8.41421 6 8 6C7.58579 6 7.25 5.66421 7.25 5.25V4.75C7.25 4.33579 7.58579 4 8 4ZM8.75 7.75C8.75 7.33579 8.41421 7 8 7C7.58579 7 7.25 7.33579 7.25 7.75V8.25C7.25 8.66421 7.58579 9 8 9C8.41421 9 8.75 8.66421 8.75 8.25V7.75ZM8 10C8.41421 10 8.75 10.3358 8.75 10.75V11.25C8.75 11.6642 8.41421 12 8 12C7.58579 12 7.25 11.6642 7.25 11.25V10.75C7.25 10.3358 7.58579 10 8 10ZM8 13C8.41421 13 8.75 13.3358 8.75 13.75V14.25C8.75 14.6642 8.41421 15 8 15C7.58579 15 7.25 14.6642 7.25 14.25V13.75C7.25 13.3358 7.58579 13 8 13ZM15.5469 3.06128C15.8219 3.17981 16 3.45057 16 3.75002V12.25C16 12.5495 15.8219 12.8202 15.5469 12.9388C15.2719 13.0573 14.9527 13.0009 14.735 12.7953L10.235 8.54528C10.085 8.40359 10 8.20636 10 8.00002C10 7.79367 10.085 7.59644 10.235 7.45476L14.735 3.20476C14.9527 2.99915 15.2719 2.94274 15.5469 3.06128ZM11.8423 8.00002L14.5 10.5101V5.48997L11.8423 8.00002ZM0 12.25C0 12.5494 0.178128 12.8202 0.453121 12.9387C0.728114 13.0573 1.04726 13.0009 1.26497 12.7952L5.76497 8.54524C5.91498 8.40356 6 8.20633 6 7.99998C6 7.79364 5.91498 7.5964 5.76497 7.45472L1.26497 3.20472C1.04726 2.99911 0.728114 2.94271 0.453121 3.06124C0.178128 3.17978 0 3.45053 0 3.74998V12.25ZM1.5 5.48993L4.1577 7.99998L1.5 10.51V5.48993Z"/>
</svg>

<svg xmlns="http://www.w3.org/2000/svg" width="16" height="16" viewBox="0 0 16 16"><path fill-rule="evenodd" d="M8.75 1.75a.75.75 0 00-1.5 0v.5a.75.75 0 001.5 0v-.5zM8 4a.75.75 0 01.75.75v.5a.75.75 0 01-1.5 0v-.5A.75.75 0 018 4zm.75 3.75a.75.75 0 00-1.5 0v.5a.75.75 0 001.5 0v-.5zM8 10a.75.75 0 01.75.75v.5a.75.75 0 01-1.5 0v-.5A.75.75 0 018 10zm0 3a.75.75 0 01.75.75v.5a.75.75 0 01-1.5 0v-.5A.75.75 0 018 13zm7.547-9.939A.75.75 0 0116 3.75v8.5a.75.75 0 01-1.265.545l-4.5-4.25a.75.75 0 010-1.09l4.5-4.25a.75.75 0 01.812-.144zM11.842 8l2.658 2.51V5.49L11.842 8zM0 12.25a.75.75 0 001.265.545l4.5-4.25a.75.75 0 000-1.09l-4.5-4.25A.75.75 0 000 3.75v8.5zm1.5-6.76L4.158 8 1.5 10.51V5.49z"/></svg>
